icons/evolvere-blue-folders-flat-vivid-dark-fallback/apps/64/mysql-navigator.svg

<?xml version="1.0" encoding="UTF-8" standalone="no"?>
<!-- Created with Inkscape (http://www.inkscape.org/) -->

<svg
   xmlns:dc="http://purl.org/dc/elements/1.1/"
   xmlns:cc="http://creativecommons.org/ns#"
   xmlns:rdf="http://www.w3.org/1999/02/22-rdf-syntax-ns#"
   xmlns:svg="http://www.w3.org/2000/svg"
   xmlns="http://www.w3.org/2000/svg"
   xmlns:sodipodi="http://sodipodi.sourceforge.net/DTD/sodipodi-0.dtd"
   xmlns:inkscape="http://www.inkscape.org/namespaces/inkscape"
   version="1.1"
   width="64"
   height="64"
   id="svg13094"
   inkscape:version="0.91+devel r"
   sodipodi:docname="mysql-navigator.svg">
  <sodipodi:namedview
     pagecolor="#ffffff"
     bordercolor="#666666"
     borderopacity="1"
     objecttolerance="10"
     gridtolerance="10"
     guidetolerance="10"
     inkscape:pageopacity="0"
     inkscape:pageshadow="2"
     inkscape:window-width="1920"
     inkscape:window-height="1023"
     id="namedview72"
     showgrid="true"
     inkscape:snap-bbox="true"
     inkscape:bbox-paths="true"
     inkscape:bbox-nodes="true"
     inkscape:snap-bbox-edge-midpoints="true"
     inkscape:snap-bbox-midpoints="true"
     inkscape:object-paths="true"
     inkscape:snap-intersection-paths="true"
     inkscape:object-nodes="true"
     inkscape:snap-smooth-nodes="true"
     inkscape:snap-midpoints="true"
     inkscape:snap-object-midpoints="true"
     inkscape:snap-center="true"
     inkscape:zoom="7.375"
     inkscape:cx="54.285376"
     inkscape:cy="37.101165"
     inkscape:window-x="-10"
     inkscape:window-y="35"
     inkscape:window-maximized="1"
     inkscape:current-layer="svg13094"
     inkscape:snap-global="true">
    <inkscape:grid
       type="xygrid"
       id="grid3049" />
  </sodipodi:namedview>
  <defs
     id="defs11" />
  <metadata
     id="metadata13099">
    <rdf:RDF>
      <cc:Work
         rdf:about="">
        <dc:format>image/svg+xml</dc:format>
        <dc:type
           rdf:resource="http://purl.org/dc/dcmitype/StillImage" />
        <dc:title></dc:title>
      </cc:Work>
    </rdf:RDF>
  </metadata>
  <path
     style="fill:#92a0ae;fill-opacity:1;fill-rule:nonzero"
     id="path4183"
     d="M 2,0 0,1 0,56.5 C 0,60.64214 14.326888,64 32,64 49.673112,64 64,60.64214 64,56.5 L 64,1 62,0 47.46875,0 l 0,3.4375 -30.9375,0 0,-3.4375 L 2,0 Z"
     inkscape:connector-curvature="0" />
  <path
     inkscape:connector-curvature="0"
     d="M 2,0 0,1 0,56.5 C 0,60.64214 14.326888,64 32,64 49.673112,64 64,60.64214 64,56.5 L 64,1 62,0 47.46875,0 l 0,3.4375 -30.9375,0 0,-3.4375 L 2,0 Z"
     id="path4171"
     style="opacity:1;fill:#005d9e;fill-opacity:0.16905189;fill-rule:nonzero;stroke:none;stroke-width:0.62299293;stroke-linecap:butt;stroke-linejoin:miter;stroke-miterlimit:4;stroke-dasharray:none;stroke-dashoffset:0;stroke-opacity:1;marker:none" />
  <path
     inkscape:connector-curvature="0"
     style="fill:#116a97;fill-opacity:1;fill-rule:nonzero"
     d="M 2,0 0,1 0,7.5 C 0,11.642136 14.326888,15 32,15 49.673112,15 64,11.642136 64,7.5 L 64,1 62,0 47.46875,0 l 0,3.4375 -30.9375,0 0,-3.4375 L 2,0 Z"
     id="path3842" />
  <path
     style="color:#000000;display:inline;overflow:visible;visibility:visible;fill:#2cb8e4;fill-opacity:1;fill-rule:nonzero;stroke:none;stroke-width:2.28571415;marker:none;enable-background:accumulate"
     d="M 2,0 0,1 0,5.40625 C 2.305311,3.059675 8.422893,1.111852 16.53125,0 L 2,0 Z M 47.46875,0 C 55.577107,1.111852 61.694689,3.059675 64,5.40625 L 64,1 62,0 47.46875,0 Z M 0,9.59375 0,15 16.53125,15 C 8.420149,13.888784 2.305459,11.940476 0,9.59375 Z m 64,0 C 61.694541,11.940476 55.579851,13.888784 47.46875,15 L 64,15 64,9.59375 Z"
     id="path3883-1"
     inkscape:connector-curvature="0" />
  <path
     id="path4278"
     d="M 32,0 C 14.326888,0 0,3.357864 0,7.5 0,11.642136 14.326888,15 32,15 49.673112,15 64,11.642136 64,7.5 64,3.357864 49.673112,0 32,0 Z"
     style="fill:#d5e4ec;fill-opacity:1;fill-rule:nonzero"
     inkscape:connector-curvature="0" />
  <path
     inkscape:connector-curvature="0"
     d="m 0,23.5 0,1.4375 c 0.09001052,0.134458 0.17059217,0.279507 0.28125,0.40625 0.48168704,0.551706 1.1565822,1.032641 2,1.5 1.6868355,0.934717 4.0458131,1.752437 6.96875,2.4375 C 15.095874,30.651377 23.131778,31.5 32,31.5 c 8.868222,0 16.904126,-0.848623 22.75,-2.21875 2.922937,-0.685063 5.281914,-1.502783 6.96875,-2.4375 0.843418,-0.467359 1.518313,-0.948294 2,-1.5 C 63.829408,25.217007 63.909989,25.071958 64,24.9375 l 0,-1.4375 -0.5,0 c 0,0.37365 -0.1604,0.762742 -0.53125,1.1875 C 62.5979,25.112258 62.02587,25.538821 61.25,25.96875 59.698259,26.828608 57.367924,27.64033 54.5,28.3125 48.764152,29.656839 40.80489,30.5 32,30.5 23.19511,30.5 15.235848,29.656839 9.5,28.3125 6.6320759,27.64033 4.3017407,26.828608 2.75,25.96875 1.9741296,25.538821 1.4021002,25.112258 1.03125,24.6875 0.66039976,24.262742 0.5,23.87365 0.5,23.5 l -0.5,0 z"
     id="path3984"
     style="color:#000000;font-style:normal;font-variant:normal;font-weight:normal;font-stretch:normal;font-size:medium;line-height:normal;font-family:Sans;-inkscape-font-specification:Sans;text-indent:0;text-align:start;text-decoration:none;text-decoration-line:none;letter-spacing:normal;word-spacing:normal;text-transform:none;direction:ltr;block-progression:tb;writing-mode:lr-tb;baseline-shift:baseline;text-anchor:start;display:inline;overflow:visible;visibility:visible;opacity:1;fill:#003763;fill-opacity:0.35241502;stroke:none;stroke-width:0.62299293;stroke-linecap:butt;stroke-linejoin:miter;stroke-miterlimit:4;stroke-dasharray:none;stroke-dashoffset:0;stroke-opacity:1;marker:none;enable-background:accumulate" />
  <path
     d="m 0,40.5 0,1.4375 c 0.09001052,0.13446 0.17059217,0.27951 0.28125,0.40625 0.48168704,0.55171 1.1565822,1.03264 2,1.5 1.6868355,0.93472 4.0458131,1.75244 6.96875,2.4375 C 15.095874,47.65138 23.131778,48.5 32,48.5 c 8.868222,0 16.904126,-0.84862 22.75,-2.21875 2.922937,-0.68506 5.281914,-1.50278 6.96875,-2.4375 0.843418,-0.46736 1.518313,-0.94829 2,-1.5 C 63.829408,42.21701 63.909989,42.07196 64,41.9375 l 0,-1.4375 -0.5,0 c 0,0.37365 -0.1604,0.76274 -0.53125,1.1875 C 62.5979,42.11226 62.02587,42.53882 61.25,42.96875 59.698259,43.82861 57.367924,44.64033 54.5,45.3125 48.764152,46.65684 40.80489,47.5 32,47.5 23.19511,47.5 15.235848,46.65684 9.5,45.3125 6.6320759,44.64033 4.3017407,43.82861 2.75,42.96875 1.9741296,42.53882 1.4021002,42.11226 1.03125,41.6875 0.66039976,41.26274 0.5,40.87365 0.5,40.5 l -0.5,0 z"
     id="path3968"
     style="color:#000000;font-style:normal;font-variant:normal;font-weight:normal;font-stretch:normal;font-size:medium;line-height:normal;font-family:Sans;-inkscape-font-specification:Sans;text-indent:0;text-align:start;text-decoration:none;text-decoration-line:none;letter-spacing:normal;word-spacing:normal;text-transform:none;direction:ltr;block-progression:tb;writing-mode:lr-tb;baseline-shift:baseline;text-anchor:start;display:inline;overflow:visible;visibility:visible;opacity:1;fill:#003763;fill-opacity:0.35241502;stroke:none;stroke-width:0.62299293;stroke-linecap:butt;stroke-linejoin:miter;stroke-miterlimit:4;stroke-dasharray:none;stroke-dashoffset:0;stroke-opacity:1;marker:none;enable-background:accumulate"
     inkscape:connector-curvature="0" />
  <path
     inkscape:connector-curvature="0"
     d="m 0,15 0,47 2,2 14.53125,0 0,-49 L 0,15 Z m 47.46875,0 0,49 L 62,64 64,62 64,15 47.46875,15 Z"
     id="path3818-7"
     style="fill:#0d95cb;fill-opacity:1;fill-rule:nonzero" />
  <path
     inkscape:connector-curvature="0"
     d="m 64,17 -2,-2 2,-1 z"
     id="path3028"
     style="opacity:1;fill:#162f4d;fill-opacity:0.35241502;stroke:none;stroke-width:0.62299293;stroke-linecap:butt;stroke-linejoin:miter;stroke-miterlimit:4;stroke-dasharray:none;stroke-dashoffset:0;stroke-opacity:1;marker:none" />
  <path
     inkscape:connector-curvature="0"
     d="M 0,17 2,15 0,14 Z"
     id="path3028-3"
     style="opacity:1;fill:#87bde7;fill-opacity:0.54740607;stroke-width:1;stroke-linecap:butt;stroke-linejoin:miter;stroke-miterlimit:4;stroke-dasharray:none;stroke-dashoffset:0;stroke-opacity:1" />
  <path
     inkscape:connector-curvature="0"
     style="color:#000000;display:inline;overflow:visible;visibility:visible;opacity:1;fill:#003763;fill-opacity:0.35241503;fill-rule:nonzero;stroke:none;stroke-width:0.62299293;stroke-linecap:butt;stroke-linejoin:miter;stroke-miterlimit:4;stroke-dasharray:none;stroke-dashoffset:0;stroke-opacity:1;marker:none;enable-background:accumulate"
     d="m 0,30 0,1 16.53125,0 0,-1 L 0,30 Z m 47.46875,0 0,1 L 64,31 64,30 47.46875,30 Z M 0,47 l 0,1 16.53125,0 0,-1 L 0,47 Z m 47.46875,0 0,1 L 64,48 64,47 47.46875,47 Z"
     id="rect3831" />
  <path
     style="fill:#c8e8f9;fill-opacity:1;fill-rule:nonzero;stroke:none"
     d="m 49.877783,16.325606 c -0.313413,-0.0052 -0.586525,0.112453 -0.72874,0.459255 -0.239454,0.583729 0.357896,1.153216 0.571528,1.448993 0.149966,0.207508 0.341576,0.440382 0.448705,0.673738 0.07049,0.153356 0.083,0.307584 0.143294,0.469897 0.148427,0.399751 0.277192,0.833921 0.469176,1.203398 0.09704,0.186908 0.20402,0.384566 0.326705,0.551761 0.07521,0.102562 0.203982,0.147757 0.224352,0.306172 -0.126045,0.176351 -0.133041,0.449506 -0.203882,0.672921 -0.319035,1.005777 -0.198803,2.255934 0.265294,3.000304 0.142412,0.228502 0.477985,0.718425 0.939169,0.530482 0.403436,-0.1643 0.313653,-0.6732 0.429061,-1.122355 0.02611,-0.101858 0.0094,-0.176576 0.06059,-0.244773 l 0,0.02045 c 0.122504,0.244903 0.245143,0.489463 0.367642,0.73432 0.271924,0.4379 0.754546,0.896245 1.163526,1.205033 0.212081,0.16012 0.37921,0.436823 0.653414,0.530478 l 0,-0.02045 -0.02045,0 c -0.05311,-0.08284 -0.136041,-0.117639 -0.203891,-0.1842 -0.159784,-0.156571 -0.337845,-0.351077 -0.469993,-0.530474 -0.371958,-0.504912 -0.70028,-1.057122 -0.999763,-1.632364 -0.143054,-0.274644 -0.267519,-0.57758 -0.388112,-0.857112 -0.04647,-0.107796 -0.04561,-0.270792 -0.142471,-0.326637 -0.132052,0.204846 -0.326926,0.37047 -0.42906,0.612339 -0.163337,0.386619 -0.184348,0.857736 -0.244824,1.346662 -0.03584,0.01282 -0.01991,0.0043 -0.0409,0.02045 -0.284288,-0.06857 -0.384058,-0.361317 -0.489646,-0.612339 -0.267284,-0.634879 -0.317065,-1.657188 -0.08187,-2.38797 0.06084,-0.189045 0.33567,-0.784786 0.224349,-0.959443 -0.05311,-0.174304 -0.228569,-0.274489 -0.3267,-0.407681 -0.121415,-0.164626 -0.24267,-0.381304 -0.326705,-0.57141 -0.21872,-0.495028 -0.320788,-1.050961 -0.551063,-1.551316 -0.110042,-0.239219 -0.295822,-0.481545 -0.448705,-0.694207 -0.169246,-0.235569 -0.359325,-0.40927 -0.490464,-0.694204 -0.04665,-0.101233 -0.10933,-0.262687 -0.04011,-0.366749 0.02201,-0.07024 0.05252,-0.09988 0.122001,-0.122798 0.118409,-0.09128 0.448203,0.03064 0.571524,0.08187 0.3274,0.135945 0.600477,0.264988 0.877766,0.448617 0.133137,0.08827 0.268169,0.258924 0.429053,0.306168 l 0.183412,0 c 0.287385,0.06606 0.609296,0.02079 0.877763,0.102332 0.474552,0.144214 0.900106,0.368516 1.286348,0.612338 1.176641,0.742777 2.13815,1.800385 2.796225,3.061712 0.105864,0.203069 0.151608,0.396925 0.244832,0.612338 0.18816,0.434388 0.425301,0.880944 0.612464,1.305726 0.186803,0.423825 0.368928,0.851528 0.632936,1.20422 0.138874,0.185398 0.67507,0.285127 0.918706,0.388032 0.170793,0.0722 0.450676,0.147299 0.612465,0.244773 0.309031,0.186396 0.608391,0.408209 0.898233,0.612343 0.144869,0.102013 0.59028,0.325615 0.612469,0.510012 -0.717918,-0.01945 -1.266235,0.0471 -1.73505,0.244769 -0.133234,0.0562 -0.345914,0.05819 -0.36765,0.225128 0.07322,0.07674 0.08509,0.191325 0.143293,0.285706 0.11195,0.181123 0.300568,0.42365 0.469176,0.550944 0.184254,0.139026 0.373995,0.288115 0.571528,0.408503 0.351325,0.214218 0.74333,0.336357 1.081645,0.550939 0.199355,0.126477 0.397467,0.285395 0.591998,0.428148 0.09613,0.07056 0.160804,0.180117 0.285764,0.224307 l 0,-0.01966 C 62.18847,29.131482 62.17196,29.015808 62.111669,28.92852 L 61.846364,28.663281 C 61.5869,28.318943 61.257332,28.01646 60.907186,27.765236 c -0.279193,-0.200399 -0.904544,-0.470835 -1.021051,-0.795717 -0.0069,-0.0069 -0.01354,-0.01362 -0.02045,-0.02046 0.19799,-0.02225 0.430578,-0.09353 0.613285,-0.142441 0.30694,-0.08229 0.58047,-0.06143 0.897413,-0.143263 0.142873,-0.04082 0.28609,-0.08124 0.429056,-0.121976 l 0,-0.08186 c -0.160253,-0.164397 -0.274835,-0.381726 -0.449538,-0.530483 -0.457095,-0.389158 -0.956016,-0.778494 -1.469763,-1.102701 -0.28493,-0.17982 -0.636419,-0.296241 -0.938353,-0.448613 -0.101584,-0.05125 -0.280054,-0.07832 -0.347175,-0.163729 -0.158603,-0.202194 -0.245325,-0.457898 -0.367641,-0.693387 -0.256291,-0.493339 -0.507476,-1.032317 -0.734473,-1.551315 -0.154883,-0.35394 -0.256447,-0.703316 -0.449524,-1.020847 -0.926906,-1.523627 -1.924502,-2.443479 -3.470108,-3.347407 -0.328856,-0.19224 -0.724621,-0.26757 -1.143057,-0.366753 -0.224453,-0.01358 -0.449338,-0.02737 -0.673876,-0.04095 -0.137055,-0.05728 -0.279988,-0.224923 -0.408586,-0.306168 -0.320012,-0.202122 -0.953135,-0.55286 -1.475491,-0.561586 z m 2.210777,2.214411 c -0.149688,-0.003 -0.255686,0.01651 -0.367645,0.04096 l 0,0.02045 0.02045,0 c 0.0714,0.146684 0.197461,0.241206 0.285764,0.367566 0.06803,0.142874 0.135769,0.28537 0.203886,0.428152 0.0068,-0.0068 0.01371,-0.01291 0.02045,-0.01966 0.126406,-0.08906 0.184866,-0.231973 0.184229,-0.449431 -0.05066,-0.05328 -0.05843,-0.119791 -0.102353,-0.183373 -0.05838,-0.08471 -0.171248,-0.133453 -0.244822,-0.204667 z"
     id="path26-3"
     inkscape:connector-curvature="0" />
</svg>

<svg xmlns="http://www.w3.org/2000/svg" viewBox="0 0 64 64"><path d="m2 0l-2 1v55.5c0 4.142 14.327 7.5 32 7.5 17.673 0 32-3.358 32-7.5v-55.5l-2-1h-14.531v3.438h-30.938v-3.438h-14.531" fill="#92a0ae"/><path d="m2 0l-2 1v55.5c0 4.142 14.327 7.5 32 7.5 17.673 0 32-3.358 32-7.5v-55.5l-2-1h-14.531v3.438h-30.938v-3.438h-14.531" fill="#005d9e" fill-opacity=".169"/><path d="m2 0l-2 1v6.5c0 4.142 14.327 7.5 32 7.5 17.673 0 32-3.358 32-7.5v-6.5l-2-1h-14.531v3.438h-30.938v-3.438h-14.531" fill="#116a97"/><path d="m2 0l-2 1v4.406c2.305-2.347 8.423-4.294 16.531-5.406h-14.531m45.47 0c8.108 1.112 14.226 3.06 16.531 5.406v-4.406l-2-1h-14.531m-47.47 9.594v5.406h16.531c-8.111-1.111-14.226-3.06-16.531-5.406m64 0c-2.305 2.347-8.42 4.295-16.531 5.406h16.531v-5.406" fill="#2cb8e4" color="#000"/><path d="m32 0c-17.673 0-32 3.358-32 7.5 0 4.142 14.327 7.5 32 7.5 17.673 0 32-3.358 32-7.5 0-4.142-14.327-7.5-32-7.5" fill="#d5e4ec"/><g fill="#003763" fill-opacity=".352" color="#000"><path d="m0 23.5v1.438c.09.134.171.28.281.406.482.552 1.157 1.033 2 1.5 1.687.935 4.046 1.752 6.969 2.438 5.846 1.37 13.882 2.219 22.75 2.219 8.868 0 16.904-.849 22.75-2.219 2.923-.685 5.282-1.503 6.969-2.438.843-.467 1.518-.948 2-1.5.111-.127.191-.272.281-.406v-1.438h-.5c0 .374-.16.763-.531 1.188-.371.425-.943.851-1.719 1.281-1.552.86-3.882 1.672-6.75 2.344-5.736 1.344-13.695 2.188-22.5 2.188-8.805 0-16.764-.843-22.5-2.188-2.868-.672-5.198-1.484-6.75-2.344-.776-.43-1.348-.856-1.719-1.281-.371-.425-.531-.814-.531-1.188h-.5"/><path d="m0 40.5v1.438c.09.134.171.28.281.406.482.552 1.157 1.033 2 1.5 1.687.935 4.046 1.752 6.969 2.438 5.846 1.37 13.882 2.219 22.75 2.219 8.868 0 16.904-.849 22.75-2.219 2.923-.685 5.282-1.503 6.969-2.438.843-.467 1.518-.948 2-1.5.111-.127.191-.272.281-.406v-1.438h-.5c0 .374-.16.763-.531 1.188-.371.425-.943.851-1.719 1.281-1.552.86-3.882 1.672-6.75 2.344-5.736 1.344-13.695 2.188-22.5 2.188-8.805 0-16.764-.843-22.5-2.188-2.868-.672-5.198-1.484-6.75-2.344-.776-.43-1.348-.856-1.719-1.281-.371-.425-.531-.814-.531-1.188h-.5"/></g><path d="m0 15v47l2 2h14.531v-49h-16.531m47.47 0v49h14.531l2-2v-47h-16.531" fill="#0d95cb"/><path d="m64 17l-2-2 2-1z" fill="#162f4d" fill-opacity=".352"/><path d="m0 17l2-2-2-1" fill="#87bde7" fill-opacity=".547"/><path d="m0 30v1h16.531v-1h-16.531m47.47 0v1h16.531v-1h-16.531m-47.47 17v1h16.531v-1h-16.531m47.47 0v1h16.531v-1h-16.531" fill-opacity=".352" color="#000" fill="#003763"/><path d="m49.878 16.326c-.313-.005-.587.112-.729.459-.239.584.358 1.153.572 1.449.15.208.342.44.449.674.07.153.083.308.143.47.148.4.277.834.469 1.203.097.187.204.385.327.552.075.103.204.148.224.306-.126.176-.133.45-.204.673-.319 1.01-.199 2.256.265 3 .142.229.478.718.939.53.403-.164.314-.673.429-1.122.026-.102.009-.177.061-.245v.02c.123.245.245.489.368.734.272.438.755.896 1.164 1.205.212.16.379.437.653.53v-.02h-.02c-.053-.083-.136-.118-.204-.184-.16-.157-.338-.351-.47-.53-.372-.505-.7-1.057-1-1.632-.143-.275-.268-.578-.388-.857-.046-.108-.046-.271-.142-.327-.132.205-.327.37-.429.612-.163.387-.184.858-.245 1.347-.036.013-.02.004-.041.02-.284-.069-.384-.361-.49-.612-.267-.635-.317-1.657-.082-2.388.061-.189.336-.785.224-.959-.053-.174-.229-.274-.327-.408-.121-.165-.243-.381-.327-.571-.219-.495-.321-1.051-.551-1.551-.11-.239-.296-.482-.449-.694-.169-.236-.359-.409-.49-.694-.047-.101-.109-.263-.04-.367.022-.07.053-.1.122-.123.118-.091.448.031.572.082.327.136.6.265.878.449.133.088.268.259.429.306h.183c.287.066.609.021.878.102.475.144.9.369 1.286.612 1.177.743 2.138 1.8 2.796 3.062.106.203.152.397.245.612.188.434.425.881.612 1.306.187.424.369.852.633 1.204.139.185.675.285.919.388.171.072.451.147.612.245.309.186.608.408.898.612.145.102.59.326.612.51-.718-.019-1.266.047-1.735.245-.133.056-.346.058-.368.225.073.077.085.191.143.286.112.181.301.424.469.551.184.139.374.288.572.409.351.214.743.336 1.082.551.199.126.397.285.592.428.096.071.161.18.286.224v-.02c-.066-.084-.082-.199-.142-.287l-.265-.265c-.259-.344-.589-.647-.939-.898-.279-.2-.905-.471-1.021-.796-.007-.007-.014-.014-.02-.02.198-.022.431-.094.613-.142.307-.082.58-.061.897-.143.143-.041.286-.081.429-.122v-.082c-.16-.164-.275-.382-.45-.53-.457-.389-.956-.778-1.47-1.103-.285-.18-.636-.296-.938-.449-.102-.051-.28-.078-.347-.164-.159-.202-.245-.458-.368-.693-.256-.493-.507-1.032-.734-1.551-.155-.354-.256-.703-.45-1.021-.927-1.524-1.925-2.443-3.47-3.347-.329-.192-.725-.268-1.143-.367-.224-.014-.449-.027-.674-.041-.137-.057-.28-.225-.409-.306-.32-.202-.953-.553-1.475-.562m2.211 2.214c-.15-.003-.256.017-.368.041v.02h.02c.071.147.197.241.286.368.068.143.136.285.204.428.007-.007.014-.013.02-.02.126-.089.185-.232.184-.449-.051-.053-.058-.12-.102-.183-.058-.085-.171-.133-.245-.205" fill="#c8e8f9"/></svg>
